packages/foundations/assets/icons/functional/images/social/crown_16.svg

<svg width="16" height="16" viewBox="0 0 16 16" fill="none" xmlns="http://www.w3.org/2000/svg">
<g clip-path="url(#clip0_187_336)">
<path fill-rule="evenodd" clip-rule="evenodd" d="M12.3993 12.8C12.8411 12.8 13.1993 13.1582 13.1993 13.6C13.1993 14.0103 12.873 14.4 12.3993 14.4H3.5993C3.15747 14.4 2.7993 14.0419 2.7993 13.6C2.7993 13.1898 3.14181 12.8 3.5993 12.8H12.3993ZM7.28376 2.0422C7.56306 1.48358 8.33297 1.45418 8.66391 1.95399L10.3089 5.23125L13.1555 3.3344C13.7054 2.96781 14.4831 3.40392 14.395 4.08655C13.9009 6.34077 13.3627 8.76976 12.7803 11.3735C12.7057 11.709 12.4267 11.9558 12.0919 11.9946L3.9993 12C3.65559 12 3.35415 11.7811 3.24365 11.4627L1.61835 4.17359C1.46847 3.49912 2.17971 2.97939 2.76721 3.28923L5.6889 5.23125L7.28376 2.0422ZM7.9993 4.18884L6.71485 6.75781C6.514 7.15952 6.02696 7.31208 5.63739 7.11362L3.6121 5.77045L4.6409 10.3992H11.3569L12.3857 5.77045L10.4431 7.06569C10.0961 7.29702 9.55509 7.22542 9.33104 6.84004C8.90652 5.99966 8.46261 5.11593 7.9993 4.18884Z" fill="#1A1C1F"/>
</g>
<defs>
<clipPath id="clip0_187_336">
<rect width="16" height="16" fill="white"/>
</clipPath>
</defs>
</svg>

<svg xmlns="http://www.w3.org/2000/svg" width="16" height="16" fill="none"><g clip-path="url(#a)"><path fill="#1A1C1F" fill-rule="evenodd" d="M12.4 12.8a.8.8 0 0 1 0 1.6H3.6a.8.8 0 0 1-.8-.8c0-.41.342-.8.8-.8zM7.283 2.042a.8.8 0 0 1 1.38-.088l1.645 3.277 2.847-1.897c.55-.366 1.327.07 1.239.753q-.74 3.381-1.615 7.287a.8.8 0 0 1-.688.62L3.999 12a.8.8 0 0 1-.755-.537l-1.626-7.29c-.15-.674.562-1.194 1.15-.884l2.92 1.942zm.715 2.147L6.715 6.758a.8.8 0 0 1-1.078.356L3.612 5.77l1.029 4.63h6.716l1.029-4.63-1.943 1.296c-.347.231-.888.16-1.112-.226q-.636-1.26-1.332-2.651" clip-rule="evenodd"/></g><defs><clipPath id="a"><path fill="#fff" d="M0 0h16v16H0z"/></clipPath></defs></svg>
